public/logo-white.svg

<svg width="2335" height="315" fill="none" xmlns="http://www.w3.org/2000/svg"><path d="M97.398 259.74c-20.544 0-38.112-3.552-52.704-10.656-14.592-7.296-25.728-18.528-33.408-33.696C3.798 200.22.054 180.924.054 157.5c0-34.56 8.448-60.192 25.344-76.896 17.088-16.896 41.088-25.344 72-25.344 16.896 0 32.064 2.88 45.504 8.64 13.44 5.76 24 14.4 31.68 25.92 7.872 11.52 11.808 26.016 11.808 43.488h-43.2c0-9.216-1.92-16.992-5.76-23.328-3.648-6.336-8.928-11.136-15.84-14.4-6.72-3.456-14.592-5.184-23.616-5.184-12.288 0-22.464 2.4-30.528 7.2-7.872 4.8-13.728 11.904-17.568 21.312-3.648 9.216-5.472 20.544-5.472 33.984v8.928c0 13.824 1.92 25.44 5.76 34.848 3.84 9.216 9.6 16.224 17.28 21.024 7.872 4.608 17.952 6.912 30.24 6.912 9.6 0 17.952-1.632 25.056-4.896 7.104-3.264 12.576-8.064 16.416-14.4s5.76-14.112 5.76-23.328h41.472c0 17.472-3.84 31.968-11.52 43.488-7.488 11.52-17.952 20.16-31.392 25.92-13.44 5.568-28.8 8.352-46.08 8.352ZM311.361 259.74c-20.928 0-38.976-3.744-54.144-11.232-15.168-7.488-26.784-18.816-34.848-33.984-8.064-15.168-12.096-34.176-12.096-57.024 0-23.232 4.032-42.336 12.096-57.312 8.064-15.168 19.68-26.4 34.848-33.696 15.168-7.488 33.216-11.232 54.144-11.232 21.312 0 39.456 3.744 54.432 11.232 15.168 7.296 26.784 18.528 34.848 33.696 8.064 14.976 12.096 34.08 12.096 57.312 0 22.848-4.032 41.856-12.096 57.024s-19.68 26.496-34.848 33.984c-14.976 7.488-33.12 11.232-54.432 11.232Zm0-35.136c9.408 0 17.664-1.344 24.768-4.032 7.104-2.688 13.056-6.72 17.856-12.096 4.8-5.376 8.448-11.904 10.944-19.584 2.496-7.872 3.744-16.8 3.744-26.784v-8.928c0-10.176-1.248-19.2-3.744-27.072-2.496-7.872-6.144-14.4-10.944-19.584-4.8-5.376-10.752-9.408-17.856-12.096-7.104-2.688-15.36-4.032-24.768-4.032-9.216 0-17.376 1.344-24.48 4.032-7.104 2.688-13.056 6.72-17.856 12.096-4.8 5.184-8.448 11.712-10.944 19.584-2.304 7.872-3.456 16.896-3.456 27.072v8.928c0 9.984 1.152 18.912 3.456 26.784 2.496 7.68 6.144 14.208 10.944 19.584 4.8 5.376 10.752 9.408 17.856 12.096 7.104 2.688 15.264 4.032 24.48 4.032ZM446.576 256.284V58.716h39.456l79.488 106.56c1.152 1.344 2.592 3.264 4.32 5.76a152.657 152.657 0 0 1 4.896 6.912c1.536 2.304 2.592 4.128 3.168 5.472h1.44V58.716h40.608v197.568h-39.456L499.28 147.132a235.87 235.87 0 0 1-6.048-8.928c-2.112-3.264-3.648-5.76-4.608-7.488h-1.44v125.568h-40.608ZM739.597 259.74c-11.52 0-22.464-1.152-32.832-3.456-10.368-2.304-19.584-5.952-27.648-10.944-7.872-5.184-14.112-11.616-18.72-19.296-4.416-7.872-6.624-17.376-6.624-28.512v-2.88c0-1.152.096-2.016.288-2.592h42.624c-.192.576-.288 1.344-.288 2.304v2.592c0 6.144 1.632 11.328 4.896 15.552 3.456 4.224 8.448 7.392 14.976 9.504 6.528 2.112 14.112 3.168 22.752 3.168 5.568 0 10.464-.288 14.688-.864 4.416-.768 8.256-1.728 11.52-2.88 3.456-1.344 6.24-2.88 8.352-4.608 2.304-1.728 3.936-3.744 4.896-6.048 1.152-2.304 1.728-4.896 1.728-7.776 0-5.184-1.728-9.408-5.184-12.672-3.264-3.264-7.872-6.048-13.824-8.352-5.76-2.304-12.288-4.416-19.584-6.336-7.296-1.92-14.784-3.84-22.464-5.76a220.034 220.034 0 0 1-22.464-7.488c-7.296-3.072-13.824-6.72-19.584-10.944-5.76-4.224-10.368-9.6-13.824-16.128-3.456-6.528-5.184-14.4-5.184-23.616 0-9.792 2.016-18.24 6.048-25.344 4.224-7.104 10.08-12.96 17.568-17.568 7.488-4.608 16.128-7.968 25.92-10.08 9.792-2.304 20.448-3.456 31.968-3.456 10.752 0 20.928 1.152 30.528 3.456 9.6 2.112 18.048 5.568 25.344 10.368 7.296 4.8 12.96 10.848 16.992 18.144 4.224 7.296 6.336 15.936 6.336 25.92v3.456h-41.76V114.3c0-5.184-1.536-9.6-4.608-13.248-3.072-3.648-7.392-6.528-12.96-8.64-5.568-2.112-12.096-3.168-19.584-3.168-8.064 0-14.976.768-20.736 2.304-5.568 1.536-9.888 3.84-12.96 6.912-2.88 2.88-4.32 6.336-4.32 10.368 0 4.608 1.632 8.448 4.896 11.52 3.456 2.88 8.064 5.472 13.824 7.776 5.952 2.112 12.576 4.032 19.872 5.76a648.044 648.044 0 0 1 22.464 5.76 220.034 220.034 0 0 1 22.464 7.488c7.296 2.88 13.824 6.528 19.584 10.944 5.76 4.224 10.368 9.504 13.824 15.84 3.456 6.336 5.184 13.92 5.184 22.752 0 15.168-3.648 27.36-10.944 36.576-7.296 9.216-17.28 15.936-29.952 20.16s-27.168 6.336-43.488 6.336ZM905.842 256.284V94.716h-63.36v-36h170.208v36h-63.648v161.568h-43.2ZM1040.67 256.284V58.716h108.29c14.59 0 26.69 2.592 36.29 7.776 9.79 5.184 17.08 12.48 21.88 21.888 4.8 9.216 7.2 19.872 7.2 31.968 0 12.864-2.88 24.288-8.64 34.272-5.76 9.792-14.11 17.28-25.05 22.464l40.32 79.2h-47.52l-34.85-72h-55.01v72h-42.91Zm42.91-105.984h59.62c8.64 0 15.36-2.592 20.16-7.776 4.8-5.376 7.2-12.576 7.2-21.6 0-5.76-1.06-10.656-3.17-14.688-2.11-4.224-5.18-7.392-9.22-9.504-4.03-2.112-9.02-3.168-14.97-3.168h-59.62V150.3ZM1333.05 259.74c-18.05 0-33.6-2.88-46.66-8.64-12.86-5.76-22.75-14.4-29.66-25.92-6.91-11.712-10.37-26.208-10.37-43.488V58.716h43.2V180.54c0 14.208 3.75 25.152 11.23 32.832 7.49 7.488 18.24 11.232 32.26 11.232s24.77-3.744 32.26-11.232c7.68-7.68 11.52-18.624 11.52-32.832V58.716h43.2v122.976c0 17.28-3.46 31.776-10.37 43.488-6.91 11.52-16.9 20.16-29.95 25.92-12.87 5.76-28.42 8.64-46.66 8.64ZM1550.37 259.74c-20.55 0-38.11-3.552-52.71-10.656-14.59-7.296-25.72-18.528-33.4-33.696-7.49-15.168-11.24-34.464-11.24-57.888 0-34.56 8.45-60.192 25.35-76.896 17.09-16.896 41.09-25.344 72-25.344 16.89 0 32.06 2.88 45.5 8.64 13.44 5.76 24 14.4 31.68 25.92 7.87 11.52 11.81 26.016 11.81 43.488h-43.2c0-9.216-1.92-16.992-5.76-23.328-3.65-6.336-8.93-11.136-15.84-14.4-6.72-3.456-14.59-5.184-23.62-5.184-12.28 0-22.46 2.4-30.52 7.2-7.88 4.8-13.73 11.904-17.57 21.312-3.65 9.216-5.47 20.544-5.47 33.984v8.928c0 13.824 1.92 25.44 5.76 34.848 3.84 9.216 9.6 16.224 17.28 21.024 7.87 4.608 17.95 6.912 30.24 6.912 9.6 0 17.95-1.632 25.05-4.896 7.11-3.264 12.58-8.064 16.42-14.4 3.84-6.336 5.76-14.112 5.76-23.328h41.47c0 17.472-3.84 31.968-11.52 43.488-7.49 11.52-17.95 20.16-31.39 25.92-13.44 5.568-28.8 8.352-46.08 8.352ZM1715.22 256.284V94.716h-63.36v-36h170.2v36h-63.64v161.568h-43.2ZM1926.94 259.74c-11.52 0-22.46-1.152-32.83-3.456-10.37-2.304-19.59-5.952-27.65-10.944-7.87-5.184-14.11-11.616-18.72-19.296-4.42-7.872-6.62-17.376-6.62-28.512v-2.88c0-1.152.09-2.016.28-2.592h42.63c-.19.576-.29 1.344-.29 2.304v2.592c0 6.144 1.63 11.328 4.9 15.552 3.45 4.224 8.44 7.392 14.97 9.504 6.53 2.112 14.11 3.168 22.75 3.168 5.57 0 10.47-.288 14.69-.864 4.42-.768 8.26-1.728 11.52-2.88 3.46-1.344 6.24-2.88 8.35-4.608 2.31-1.728 3.94-3.744 4.9-6.048 1.15-2.304 1.73-4.896 1.73-7.776 0-5.184-1.73-9.408-5.19-12.672-3.26-3.264-7.87-6.048-13.82-8.352-5.76-2.304-12.29-4.416-19.58-6.336-7.3-1.92-14.79-3.84-22.47-5.76a219.472 219.472 0 0 1-22.46-7.488c-7.3-3.072-13.83-6.72-19.59-10.944-5.76-4.224-10.36-9.6-13.82-16.128-3.46-6.528-5.18-14.4-5.18-23.616 0-9.792 2.01-18.24 6.04-25.344 4.23-7.104 10.08-12.96 17.57-17.568 7.49-4.608 16.13-7.968 25.92-10.08 9.79-2.304 20.45-3.456 31.97-3.456 10.75 0 20.93 1.152 30.53 3.456 9.6 2.112 18.05 5.568 25.34 10.368 7.3 4.8 12.96 10.848 16.99 18.144 4.23 7.296 6.34 15.936 6.34 25.92v3.456h-41.76V114.3c0-5.184-1.54-9.6-4.61-13.248-3.07-3.648-7.39-6.528-12.96-8.64-5.57-2.112-12.09-3.168-19.58-3.168-8.07 0-14.98.768-20.74 2.304-5.57 1.536-9.89 3.84-12.96 6.912-2.88 2.88-4.32 6.336-4.32 10.368 0 4.608 1.63 8.448 4.9 11.52 3.45 2.88 8.06 5.472 13.82 7.776 5.95 2.112 12.58 4.032 19.87 5.76 7.3 1.728 14.79 3.648 22.47 5.76a219.472 219.472 0 0 1 22.46 7.488c7.3 2.88 13.83 6.528 19.59 10.944 5.76 4.224 10.36 9.504 13.82 15.84 3.46 6.336 5.18 13.92 5.18 22.752 0 15.168-3.64 27.36-10.94 36.576-7.3 9.216-17.28 15.936-29.95 20.16-12.67 4.224-27.17 6.336-43.49 6.336Z" fill="#F5F5F5"/><path d="M2288.07 314.625c-2 0-3.87-.312-5.62-.937s-3.38-1.688-4.88-3.188l-76.5-76.5c-1.5-1.5-2.56-3.125-3.18-4.875-.63-1.75-.94-3.625-.94-5.625s.31-3.875.94-5.625c.62-1.75 1.68-3.375 3.18-4.875l31.88-31.875c1.5-1.5 3.12-2.562 4.87-3.187s3.63-.938 5.63-.938 3.87.313 5.62.938 3.38 1.687 4.88 3.187l76.5 76.5c1.5 1.5 2.56 3.125 3.19 4.875.62 1.75.93 3.625.93 5.625s-.31 3.875-.93 5.625c-.63 1.75-1.69 3.375-3.19 4.875l-31.88 31.875c-1.5 1.5-3.12 2.563-4.87 3.188s-3.63.937-5.63.937Zm0-35.625 10.88-10.875L2243.82 213l-10.87 10.875L2288.07 279Zm-205.87 36c-2 0-3.94-.375-5.81-1.125-1.88-.75-3.57-1.875-5.07-3.375l-31.5-31.5c-1.5-1.5-2.62-3.187-3.37-5.062a15.522 15.522 0 0 1-1.13-5.813c0-2 .38-3.875 1.13-5.625.75-1.75 1.87-3.375 3.37-4.875l79.5-79.5h31.88l12.75-12.75-61.88-61.875h-21.37l-45.38-45.375 42.38-42.375 45.37 45.375V82.5l61.88 61.875 43.5-43.5-16.13-16.125 21-21h-42.37l-10.5-10.5L2233.7 0l10.5 10.5v42.375l21-21 53.25 53.25c4.25 4.25 7.5 9.063 9.75 14.438s3.37 11.062 3.37 17.062c0 6-1.12 11.75-3.37 17.25s-5.5 10.375-9.75 14.625l-31.88-31.875-21 21-15.75-15.75-77.62 77.625V231l-79.5 79.5c-1.5 1.5-3.13 2.625-4.88 3.375S2084.2 315 2082.2 315Zm0-36 63.75-63.75v-10.875h-10.88l-63.75 63.75L2082.2 279Zm0 0-10.88-10.875 5.63 5.25 5.25 5.625Z" fill="#BEF76B"/></svg>

<svg width="2335" height="315" viewBox="0 0 2335 315" fill="none" xmlns="http://www.w3.org/2000/svg">
<path d="M97.3983 259.74C76.8543 259.74 59.2863 256.188 44.6943 249.084C30.1023 241.788 18.9663 230.556 11.2863 215.388C3.79832 200.22 0.0543213 180.924 0.0543213 157.5C0.0543213 122.94 8.50232 97.308 25.3983 80.604C42.4863 63.708 66.4863 55.26 97.3983 55.26C114.294 55.26 129.462 58.14 142.902 63.9C156.342 69.66 166.902 78.3 174.582 89.82C182.454 101.34 186.39 115.836 186.39 133.308H143.19C143.19 124.092 141.27 116.316 137.43 109.98C133.782 103.644 128.502 98.844 121.59 95.58C114.87 92.124 106.998 90.396 97.9743 90.396C85.6863 90.396 75.5103 92.796 67.4463 97.596C59.5743 102.396 53.7183 109.5 49.8783 118.908C46.2303 128.124 44.4063 139.452 44.4063 152.892V161.82C44.4063 175.644 46.3263 187.26 50.1663 196.668C54.0063 205.884 59.7663 212.892 67.4463 217.692C75.3183 222.3 85.3983 224.604 97.6863 224.604C107.286 224.604 115.638 222.972 122.742 219.708C129.846 216.444 135.318 211.644 139.158 205.308C142.998 198.972 144.918 191.196 144.918 181.98H186.39C186.39 199.452 182.55 213.948 174.87 225.468C167.382 236.988 156.918 245.628 143.478 251.388C130.038 256.956 114.678 259.74 97.3983 259.74Z" fill="#F5F5F5"/>
<path d="M311.361 259.74C290.433 259.74 272.385 255.996 257.217 248.508C242.049 241.02 230.433 229.692 222.369 214.524C214.305 199.356 210.273 180.348 210.273 157.5C210.273 134.268 214.305 115.164 222.369 100.188C230.433 85.02 242.049 73.788 257.217 66.492C272.385 59.004 290.433 55.26 311.361 55.26C332.673 55.26 350.817 59.004 365.793 66.492C380.961 73.788 392.577 85.02 400.641 100.188C408.705 115.164 412.737 134.268 412.737 157.5C412.737 180.348 408.705 199.356 400.641 214.524C392.577 229.692 380.961 241.02 365.793 248.508C350.817 255.996 332.673 259.74 311.361 259.74ZM311.361 224.604C320.769 224.604 329.025 223.26 336.129 220.572C343.233 217.884 349.185 213.852 353.985 208.476C358.785 203.1 362.433 196.572 364.929 188.892C367.425 181.02 368.673 172.092 368.673 162.108V153.18C368.673 143.004 367.425 133.98 364.929 126.108C362.433 118.236 358.785 111.708 353.985 106.524C349.185 101.148 343.233 97.116 336.129 94.428C329.025 91.74 320.769 90.396 311.361 90.396C302.145 90.396 293.985 91.74 286.881 94.428C279.777 97.116 273.825 101.148 269.025 106.524C264.225 111.708 260.577 118.236 258.081 126.108C255.777 133.98 254.625 143.004 254.625 153.18V162.108C254.625 172.092 255.777 181.02 258.081 188.892C260.577 196.572 264.225 203.1 269.025 208.476C273.825 213.852 279.777 217.884 286.881 220.572C293.985 223.26 302.145 224.604 311.361 224.604Z" fill="#F5F5F5"/>
<path d="M446.576 256.284V58.716H486.032L565.52 165.276C566.672 166.62 568.112 168.54 569.84 171.036C571.568 173.34 573.2 175.644 574.736 177.948C576.272 180.252 577.328 182.076 577.904 183.42H579.344C579.344 180.156 579.344 176.988 579.344 173.916C579.344 170.652 579.344 167.772 579.344 165.276V58.716H619.952V256.284H580.496L499.28 147.132C497.36 144.444 495.344 141.468 493.232 138.204C491.12 134.94 489.584 132.444 488.624 130.716H487.184C487.184 133.596 487.184 136.476 487.184 139.356C487.184 142.044 487.184 144.636 487.184 147.132V256.284H446.576Z" fill="#F5F5F5"/>
<path d="M739.597 259.74C728.077 259.74 717.133 258.588 706.765 256.284C696.397 253.98 687.181 250.332 679.117 245.34C671.245 240.156 665.005 233.724 660.397 226.044C655.981 218.172 653.773 208.668 653.773 197.532C653.773 196.572 653.773 195.612 653.773 194.652C653.773 193.5 653.869 192.636 654.061 192.06H696.685C696.493 192.636 696.397 193.404 696.397 194.364C696.397 195.324 696.397 196.188 696.397 196.956C696.397 203.1 698.029 208.284 701.293 212.508C704.749 216.732 709.741 219.9 716.269 222.012C722.797 224.124 730.381 225.18 739.021 225.18C744.589 225.18 749.485 224.892 753.709 224.316C758.125 223.548 761.965 222.588 765.229 221.436C768.685 220.092 771.469 218.556 773.581 216.828C775.885 215.1 777.517 213.084 778.477 210.78C779.629 208.476 780.205 205.884 780.205 203.004C780.205 197.82 778.477 193.596 775.021 190.332C771.757 187.068 767.149 184.284 761.197 181.98C755.437 179.676 748.909 177.564 741.613 175.644C734.317 173.724 726.829 171.804 719.149 169.884C711.469 167.772 703.981 165.276 696.685 162.396C689.389 159.324 682.861 155.676 677.101 151.452C671.341 147.228 666.733 141.852 663.277 135.324C659.821 128.796 658.093 120.924 658.093 111.708C658.093 101.916 660.109 93.468 664.141 86.364C668.365 79.26 674.221 73.404 681.709 68.796C689.197 64.188 697.837 60.828 707.629 58.716C717.421 56.412 728.077 55.26 739.597 55.26C750.349 55.26 760.525 56.412 770.125 58.716C779.725 60.828 788.173 64.284 795.469 69.084C802.765 73.884 808.429 79.932 812.461 87.228C816.685 94.524 818.797 103.164 818.797 113.148V116.604H777.037V114.3C777.037 109.116 775.501 104.7 772.429 101.052C769.357 97.404 765.037 94.524 759.469 92.412C753.901 90.3 747.373 89.244 739.885 89.244C731.821 89.244 724.909 90.012 719.149 91.548C713.581 93.084 709.261 95.388 706.189 98.46C703.309 101.34 701.869 104.796 701.869 108.828C701.869 113.436 703.501 117.276 706.765 120.348C710.221 123.228 714.829 125.82 720.589 128.124C726.541 130.236 733.165 132.156 740.461 133.884C747.757 135.612 755.245 137.532 762.925 139.644C770.605 141.756 778.093 144.252 785.389 147.132C792.685 150.012 799.213 153.66 804.973 158.076C810.733 162.3 815.341 167.58 818.797 173.916C822.253 180.252 823.981 187.836 823.981 196.668C823.981 211.836 820.333 224.028 813.037 233.244C805.741 242.46 795.757 249.18 783.085 253.404C770.413 257.628 755.917 259.74 739.597 259.74Z" fill="#F5F5F5"/>
<path d="M905.842 256.284V94.716H842.482V58.716H1012.69V94.716H949.042V256.284H905.842Z" fill="#F5F5F5"/>
<path d="M1040.67 256.284V58.716H1148.96C1163.55 58.716 1175.65 61.308 1185.25 66.492C1195.04 71.676 1202.33 78.972 1207.13 88.38C1211.93 97.596 1214.33 108.252 1214.33 120.348C1214.33 133.212 1211.45 144.636 1205.69 154.62C1199.93 164.412 1191.58 171.9 1180.64 177.084L1220.96 256.284H1173.44L1138.59 184.284H1083.58V256.284H1040.67ZM1083.58 150.3H1143.2C1151.84 150.3 1158.56 147.708 1163.36 142.524C1168.16 137.148 1170.56 129.948 1170.56 120.924C1170.56 115.164 1169.5 110.268 1167.39 106.236C1165.28 102.012 1162.21 98.844 1158.17 96.732C1154.14 94.62 1149.15 93.564 1143.2 93.564H1083.58V150.3Z" fill="#F5F5F5"/>
<path d="M1333.05 259.74C1315 259.74 1299.45 256.86 1286.39 251.1C1273.53 245.34 1263.64 236.7 1256.73 225.18C1249.82 213.468 1246.36 198.972 1246.36 181.692V58.716H1289.56V180.54C1289.56 194.748 1293.31 205.692 1300.79 213.372C1308.28 220.86 1319.03 224.604 1333.05 224.604C1347.07 224.604 1357.82 220.86 1365.31 213.372C1372.99 205.692 1376.83 194.748 1376.83 180.54V58.716H1420.03V181.692C1420.03 198.972 1416.57 213.468 1409.66 225.18C1402.75 236.7 1392.76 245.34 1379.71 251.1C1366.84 256.86 1351.29 259.74 1333.05 259.74Z" fill="#F5F5F5"/>
<path d="M1550.37 259.74C1529.82 259.74 1512.26 256.188 1497.66 249.084C1483.07 241.788 1471.94 230.556 1464.26 215.388C1456.77 200.22 1453.02 180.924 1453.02 157.5C1453.02 122.94 1461.47 97.308 1478.37 80.604C1495.46 63.708 1519.46 55.26 1550.37 55.26C1567.26 55.26 1582.43 58.14 1595.87 63.9C1609.31 69.66 1619.87 78.3 1627.55 89.82C1635.42 101.34 1639.36 115.836 1639.36 133.308H1596.16C1596.16 124.092 1594.24 116.316 1590.4 109.98C1586.75 103.644 1581.47 98.844 1574.56 95.58C1567.84 92.124 1559.97 90.396 1550.94 90.396C1538.66 90.396 1528.48 92.796 1520.42 97.596C1512.54 102.396 1506.69 109.5 1502.85 118.908C1499.2 128.124 1497.38 139.452 1497.38 152.892V161.82C1497.38 175.644 1499.3 187.26 1503.14 196.668C1506.98 205.884 1512.74 212.892 1520.42 217.692C1528.29 222.3 1538.37 224.604 1550.66 224.604C1560.26 224.604 1568.61 222.972 1575.71 219.708C1582.82 216.444 1588.29 211.644 1592.13 205.308C1595.97 198.972 1597.89 191.196 1597.89 181.98H1639.36C1639.36 199.452 1635.52 213.948 1627.84 225.468C1620.35 236.988 1609.89 245.628 1596.45 251.388C1583.01 256.956 1567.65 259.74 1550.37 259.74Z" fill="#F5F5F5"/>
<path d="M1715.22 256.284V94.716H1651.86V58.716H1822.06V94.716H1758.42V256.284H1715.22Z" fill="#F5F5F5"/>
<path d="M1926.94 259.74C1915.42 259.74 1904.48 258.588 1894.11 256.284C1883.74 253.98 1874.52 250.332 1866.46 245.34C1858.59 240.156 1852.35 233.724 1847.74 226.044C1843.32 218.172 1841.12 208.668 1841.12 197.532C1841.12 196.572 1841.12 195.612 1841.12 194.652C1841.12 193.5 1841.21 192.636 1841.4 192.06H1884.03C1883.84 192.636 1883.74 193.404 1883.74 194.364C1883.74 195.324 1883.74 196.188 1883.74 196.956C1883.74 203.1 1885.37 208.284 1888.64 212.508C1892.09 216.732 1897.08 219.9 1903.61 222.012C1910.14 224.124 1917.72 225.18 1926.36 225.18C1931.93 225.18 1936.83 224.892 1941.05 224.316C1945.47 223.548 1949.31 222.588 1952.57 221.436C1956.03 220.092 1958.81 218.556 1960.92 216.828C1963.23 215.1 1964.86 213.084 1965.82 210.78C1966.97 208.476 1967.55 205.884 1967.55 203.004C1967.55 197.82 1965.82 193.596 1962.36 190.332C1959.1 187.068 1954.49 184.284 1948.54 181.98C1942.78 179.676 1936.25 177.564 1928.96 175.644C1921.66 173.724 1914.17 171.804 1906.49 169.884C1898.81 167.772 1891.32 165.276 1884.03 162.396C1876.73 159.324 1870.2 155.676 1864.44 151.452C1858.68 147.228 1854.08 141.852 1850.62 135.324C1847.16 128.796 1845.44 120.924 1845.44 111.708C1845.44 101.916 1847.45 93.468 1851.48 86.364C1855.71 79.26 1861.56 73.404 1869.05 68.796C1876.54 64.188 1885.18 60.828 1894.97 58.716C1904.76 56.412 1915.42 55.26 1926.94 55.26C1937.69 55.26 1947.87 56.412 1957.47 58.716C1967.07 60.828 1975.52 64.284 1982.81 69.084C1990.11 73.884 1995.77 79.932 1999.8 87.228C2004.03 94.524 2006.14 103.164 2006.14 113.148V116.604H1964.38V114.3C1964.38 109.116 1962.84 104.7 1959.77 101.052C1956.7 97.404 1952.38 94.524 1946.81 92.412C1941.24 90.3 1934.72 89.244 1927.23 89.244C1919.16 89.244 1912.25 90.012 1906.49 91.548C1900.92 93.084 1896.6 95.388 1893.53 98.46C1890.65 101.34 1889.21 104.796 1889.21 108.828C1889.21 113.436 1890.84 117.276 1894.11 120.348C1897.56 123.228 1902.17 125.82 1907.93 128.124C1913.88 130.236 1920.51 132.156 1927.8 133.884C1935.1 135.612 1942.59 137.532 1950.27 139.644C1957.95 141.756 1965.44 144.252 1972.73 147.132C1980.03 150.012 1986.56 153.66 1992.32 158.076C1998.08 162.3 2002.68 167.58 2006.14 173.916C2009.6 180.252 2011.32 187.836 2011.32 196.668C2011.32 211.836 2007.68 224.028 2000.38 233.244C1993.08 242.46 1983.1 249.18 1970.43 253.404C1957.76 257.628 1943.26 259.74 1926.94 259.74Z" fill="#F5F5F5"/>
<path d="M2288.07 314.625C2286.07 314.625 2284.2 314.313 2282.45 313.688C2280.7 313.063 2279.07 312 2277.57 310.5L2201.07 234C2199.57 232.5 2198.51 230.875 2197.89 229.125C2197.26 227.375 2196.95 225.5 2196.95 223.5C2196.95 221.5 2197.26 219.625 2197.89 217.875C2198.51 216.125 2199.57 214.5 2201.07 213L2232.95 181.125C2234.45 179.625 2236.07 178.563 2237.82 177.938C2239.57 177.313 2241.45 177 2243.45 177C2245.45 177 2247.32 177.313 2249.07 177.938C2250.82 178.563 2252.45 179.625 2253.95 181.125L2330.45 257.625C2331.95 259.125 2333.01 260.75 2333.64 262.5C2334.26 264.25 2334.57 266.125 2334.57 268.125C2334.57 270.125 2334.26 272 2333.64 273.75C2333.01 275.5 2331.95 277.125 2330.45 278.625L2298.57 310.5C2297.07 312 2295.45 313.063 2293.7 313.688C2291.95 314.313 2290.07 314.625 2288.07 314.625ZM2288.07 279L2298.95 268.125L2243.82 213L2232.95 223.875L2288.07 279ZM2082.2 315C2080.2 315 2078.26 314.625 2076.39 313.875C2074.51 313.125 2072.82 312 2071.32 310.5L2039.82 279C2038.32 277.5 2037.2 275.813 2036.45 273.938C2035.7 272.063 2035.32 270.125 2035.32 268.125C2035.32 266.125 2035.7 264.25 2036.45 262.5C2037.2 260.75 2038.32 259.125 2039.82 257.625L2119.32 178.125H2151.2L2163.95 165.375L2102.07 103.5H2080.7L2035.32 58.125L2077.7 15.75L2123.07 61.125V82.5L2184.95 144.375L2228.45 100.875L2212.32 84.75L2233.32 63.75H2190.95L2180.45 53.25L2233.7 0L2244.2 10.5V52.875L2265.2 31.875L2318.45 85.125C2322.7 89.375 2325.95 94.1875 2328.2 99.5625C2330.45 104.938 2331.57 110.625 2331.57 116.625C2331.57 122.625 2330.45 128.375 2328.2 133.875C2325.95 139.375 2322.7 144.25 2318.45 148.5L2286.57 116.625L2265.57 137.625L2249.82 121.875L2172.2 199.5V231L2092.7 310.5C2091.2 312 2089.57 313.125 2087.82 313.875C2086.07 314.625 2084.2 315 2082.2 315ZM2082.2 279L2145.95 215.25V204.375H2135.07L2071.32 268.125L2082.2 279ZM2082.2 279L2071.32 268.125L2076.95 273.375L2082.2 279Z" fill="#BEF76B"/>
</svg>
